raw-svg/wave-pulse.svg

<svg fill="none" height="24" viewBox="0 0 24 24" width="24" xmlns="http://www.w3.org/2000/svg"><path clip-rule="evenodd" d="m10.0532 5.2519c.3026.0215.5624.22316.6583.51094l3.4274 10.28226 2.1903-4.3805c.127-.2541.3867-.4146.6708-.4146h2c.4142 0 .75.3357.75.75 0 .4142-.3358.75-.75.75h-1.5365l-2.7927 5.5854c-.1356.2713-.4214.4342-.724.4127-.3025-.0215-.5624-.2231-.6583-.5109l-3.42743-10.28228-2.19025 4.38048c-.12705.2541-.38674.4146-.67082.4146h-2c-.41421 0-.75-.3358-.75-.75 0-.4143.33579-.75.75-.75h1.53648l2.7927-5.5854c.13566-.27132.42141-.43421.72402-.4127z" fill="#000" fill-rule="evenodd"/></svg>

<svg width="24" height="24" viewBox="0 0 24 24" fill="none" xmlns="http://www.w3.org/2000/svg">
<path fill-rule="evenodd" clip-rule="evenodd" d="M10.0532 5.2519C10.3558 5.2734 10.6156 5.47506 10.7115 5.76284L14.1389 16.0451L16.3292 11.6646C16.4562 11.4105 16.7159 11.25 17 11.25H19C19.4142 11.25 19.75 11.5857 19.75 12C19.75 12.4142 19.4142 12.75 19 12.75H17.4635L14.6708 18.3354C14.5352 18.6067 14.2494 18.7696 13.9468 18.7481C13.6443 18.7266 13.3844 18.525 13.2885 18.2372L9.86107 7.95492L7.67082 12.3354C7.54377 12.5895 7.28408 12.75 7 12.75H5C4.58579 12.75 4.25 12.4142 4.25 12C4.25 11.5857 4.58579 11.25 5 11.25H6.53648L9.32918 5.6646C9.46484 5.39328 9.75059 5.23039 10.0532 5.2519Z" fill="black"/>
</svg>
